X: 24454
T: Luckenbooth, The
R: reel
M: 4/4
K: Dmajor
de|:^f3e2d ^cd|B2 d4 dB|A2 d2 de ^f2|e6 de|
^f3e2d ^cd|B2 d4 dB|A2 ^f2 e3d|1 d6 de:|2 d6 ^fg||
|:a6 ab|a2 ^f4 fg|a4 g^f3|e6 de|
^f3e2d ^cd|B2 d4 dB|A2 ^f2 e3d|1 d3^f2g3:|2 d8||

